public/svgs/aboutus/letter5.svg

<svg width="50" height="52" viewBox="0 0 50 52" fill="none" xmlns="http://www.w3.org/2000/svg">
<g filter="url(#filter0_d_3766_1928)">
<path d="M22.6019 38.8563C23.0009 38.4595 23.1452 38.0155 23.2405 37.7214C23.2535 37.6816 23.2657 37.6457 23.2778 37.61C23.3372 37.4386 23.3978 37.2677 23.4583 37.0968C23.69 36.4393 23.9286 35.764 24.123 35.0852C24.5231 33.6814 24.9127 32.2549 25.2899 30.8708C28.1357 33.8381 30.9333 36.7585 33.6183 39.5647C34.0904 40.0583 34.5616 40.5544 35.0325 41.0507L35.0364 41.0547C35.8187 41.8787 36.628 42.7312 37.4333 43.5607C38.3731 44.5286 39.5483 44.345 40.9268 43.0152C40.9643 42.9795 41.002 42.9435 41.039 42.9067C41.3688 42.5787 41.6499 42.2502 41.8752 41.9312C42.6273 40.8653 42.7549 39.8433 42.2246 39.1261L42.1493 39.0239C41.964 38.7717 41.7713 38.5095 41.5287 38.2731C41.324 38.0735 41.1097 37.8912 40.9015 37.714C40.6967 37.5397 40.485 37.3596 40.2985 37.175C38.2976 35.194 36.1863 33.0918 33.8439 30.7483C32.5304 29.4341 31.2398 28.1352 29.8736 26.7596C29.6997 26.5846 29.5259 26.4096 29.3512 26.2338C30.8494 26.0848 32.3482 26.1457 34.0376 26.417C34.1085 26.4287 34.1781 26.4401 34.2485 26.4523C34.626 26.5165 35.0513 26.5886 35.5211 26.5689C36.2885 26.5363 37.0762 26.172 37.6823 25.5691C38.4434 24.8122 38.7849 23.8179 38.5729 22.9738C38.4186 22.3572 38.0047 21.7899 37.4657 21.4561C36.9421 21.1323 36.2668 21.0544 35.6154 21.0191C34.2181 20.9427 32.7836 21.3399 31.4389 21.7853C31.45 21.7395 31.461 21.6937 31.472 21.648C31.7301 20.5768 31.9735 19.5647 32.1634 18.5313C32.3235 17.6635 32.4591 17.2314 32.8873 16.8055L32.899 16.7938C33.3955 16.3001 33.9402 15.2697 33.6314 14.6927C33.3829 14.2282 32.7343 13.9718 32.0893 14.0836C30.6003 14.3403 29.1431 14.942 27.7773 15.5349L27.4584 15.6734C27.3437 15.7242 27.2349 15.7992 27.1424 15.8911C27.0753 15.9579 27.0168 16.0334 26.9701 16.1148C26.8586 16.3079 26.8262 16.514 26.8806 16.6781L26.9678 16.941C27.6356 18.9511 27.931 21.0294 27.8673 23.2784C27.5355 23.4423 27.2177 23.5987 26.9051 23.7404C26.5742 23.4685 26.4153 23.3181 26.4332 23.0125C26.6176 19.8338 26.3045 16.56 25.4758 13.0036C25.3622 12.514 25.3948 12.2744 25.6293 11.891C26.2365 10.8965 26.1978 10.2628 26.0578 9.90552C25.8486 9.37025 25.3079 9.10626 24.4521 9.12238C23.7746 9.13508 23.0891 9.26021 22.4264 9.38158L22.3272 9.39956C21.3737 9.57302 20.5509 9.72396 19.9008 10.3705C19.2489 11.0188 19.0998 11.8235 18.9113 12.8427L18.8992 12.9101C18.8718 13.056 18.8184 13.3527 18.7657 13.4699C18.5964 13.6715 18.3947 13.8879 18.1337 14.1475C18.0161 14.2644 17.8959 14.3809 17.7712 14.5001L14.3016 11.0114C14.4269 10.7381 14.5534 10.4573 14.6629 10.1649L14.6679 10.1537C14.8482 9.67072 15.3297 8.38848 14.2638 8.04738C13.6888 7.8633 12.863 8.13111 12.2995 8.47797C10.8613 9.36593 9.4117 10.5135 7.86906 11.9876L7.63508 12.2108C7.62984 12.216 7.6246 12.2213 7.61937 12.2265C7.47451 12.3705 7.37467 12.5489 7.3425 12.7248C7.30891 12.9069 7.35079 13.0708 7.45754 13.1781L7.61964 13.3411L13.2424 18.9947C13.0549 19.1844 12.8676 19.3722 12.6819 19.5569C11.2178 21.0131 9.71749 22.385 8.09561 23.7514L7.74144 24.0498C7.71753 24.0689 7.69519 24.0895 7.67382 24.1108C7.51262 24.2711 7.40785 24.4749 7.38915 24.669C7.36811 24.8892 7.4601 25.0682 7.63505 25.1472L7.94757 25.2887L9.7215 26.0895L9.8941 26.1678C10.1335 26.276 10.4735 26.1751 10.7233 25.9266C10.7351 25.9149 10.7462 25.9023 10.7581 25.8905L10.9309 25.7012C11.3061 25.2932 11.67 24.8933 12.0214 24.5059L12.0272 24.5002C12.8133 23.6361 13.555 22.8193 14.3165 22.0256C14.7037 21.6232 15.1231 21.1982 15.6362 20.6878C16.0023 20.3237 16.3779 19.9533 16.742 19.5959C17.0521 19.2907 17.3617 18.9876 17.6689 18.682C17.7698 18.5833 17.8701 18.4835 17.9703 18.3839C18.2335 18.1221 18.4958 17.8596 18.7578 17.5975L18.7638 17.5915L18.7856 17.5699C19.0409 17.3159 19.295 17.0617 19.5494 16.8086C19.763 16.5962 19.9593 16.401 20.143 16.2198C21.76 21.3423 22.1143 27.0533 21.1973 33.1968C21.0349 34.2866 20.8167 35.4145 20.6065 36.506C20.5219 36.9412 20.4384 37.3737 20.3575 37.8054C20.3511 37.8417 20.343 37.8782 20.335 37.9147C20.2926 38.115 20.2226 38.444 20.2939 38.7542C20.3924 39.1844 20.7296 39.4247 21.2426 39.4301C21.7412 39.4356 22.2241 39.232 22.6019 38.8563Z" fill="black"/>
</g>
<defs>
<filter id="filter0_d_3766_1928" x="0.332031" y="0.987518" width="49.2148" height="50.1838" filterUnits="userSpaceOnUse" color-interpolation-filters="sRGB">
<feFlood flood-opacity="0" result="BackgroundImageFix"/>
<feColorMatrix in="SourceAlpha" type="matrix" values="0 0 0 0 0 0 0 0 0 0 0 0 0 0 0 0 0 0 127 0" result="hardAlpha"/>
<feOffset/>
<feGaussianBlur stdDeviation="3.5"/>
<feComposite in2="hardAlpha" operator="out"/>
<feColorMatrix type="matrix" values="0 0 0 0 0.94902 0 0 0 0 0.866667 0 0 0 0 0.486275 0 0 0 1 0"/>
<feBlend mode="normal" in2="BackgroundImageFix" result="effect1_dropShadow_3766_1928"/>
<feBlend mode="normal" in="SourceGraphic" in2="effect1_dropShadow_3766_1928" result="shape"/>
</filter>
</defs>
</svg>

<svg xmlns="http://www.w3.org/2000/svg" width="50" height="52" fill="none" viewBox="0 0 50 52"><g filter="url(#a)"><path fill="#000" d="M22.602 38.856c.399-.397.543-.84.639-1.135q.018-.058.037-.111l.18-.513c.232-.658.47-1.333.665-2.012.4-1.404.79-2.83 1.167-4.214 2.846 2.967 5.643 5.887 8.328 8.694q.709.74 1.414 1.486l.004.004c.783.824 1.592 1.676 2.397 2.506.94.968 2.115.784 3.494-.546l.112-.108c.33-.328.61-.657.836-.976.752-1.066.88-2.088.35-2.805l-.076-.102a6 6 0 0 0-.62-.75c-.205-.2-.42-.383-.628-.56-.204-.174-.416-.354-.603-.539A1733 1733 0 0 1 29.874 26.76l-.523-.526c1.498-.15 2.997-.088 4.687.183l.21.035c.378.064.803.137 1.273.117.767-.033 1.555-.397 2.161-1 .761-.757 1.103-1.751.89-2.595a2.55 2.55 0 0 0-1.106-1.518c-.524-.324-1.2-.402-1.85-.437-1.398-.076-2.832.32-4.177.766l.033-.137c.258-1.071.502-2.083.691-3.117.16-.867.296-1.3.724-1.726l.012-.011c.496-.494 1.041-1.524.732-2.101-.248-.465-.897-.721-1.542-.61-1.489.257-2.946.859-4.312 1.452l-.319.138a1.07 1.07 0 0 0-.488.442c-.111.193-.144.399-.09.563l.088.263c.668 2.01.963 4.088.9 6.337-.332.164-.65.32-.963.462-.33-.271-.49-.422-.472-.727.185-3.18-.128-6.453-.957-10.01-.114-.489-.081-.729.153-1.112.607-.995.569-1.628.429-1.985-.21-.536-.75-.8-1.606-.784-.677.013-1.363.138-2.026.26l-.099.018c-.953.173-1.776.324-2.426.97-.652.649-.801 1.454-.99 2.473l-.012.067c-.027.146-.08.443-.133.56a11 11 0 0 1-.632.678q-.176.174-.363.352l-3.47-3.489c.126-.273.252-.554.362-.846l.005-.011c.18-.483.662-1.766-.404-2.107-.575-.184-1.401.084-1.964.431-1.439.888-2.888 2.036-4.43 3.51l-.235.223-.016.015a.97.97 0 0 0-.276.499c-.034.182.008.346.115.453l.162.163 5.622 5.654q-.28.285-.56.562a75 75 0 0 1-4.586 4.194l-.355.299a.95.95 0 0 0-.352.62c-.02.22.071.398.246.477l.313.142 1.774.8.172.079c.24.108.58.007.83-.241l.034-.037.173-.189q.563-.613 1.09-1.195l.006-.006c.786-.864 1.528-1.68 2.29-2.474.387-.403.806-.828 1.32-1.338.365-.364.74-.735 1.105-1.092q.466-.456.927-.914l.301-.298q.395-.393.788-.787l.006-.006.022-.021.763-.761.594-.59c1.617 5.123 1.971 10.834 1.054 16.978-.162 1.09-.38 2.217-.59 3.309q-.128.652-.25 1.3l-.022.109c-.042.2-.112.529-.041.84.098.43.436.67.949.675.498.006.981-.198 1.359-.574"/></g><defs><filter id="a" width="49.215" height="50.184" x=".332" y=".988" color-interpolation-filters="sRGB" filterUnits="userSpaceOnUse"><feFlood flood-opacity="0" result="BackgroundImageFix"/><feColorMatrix in="SourceAlpha" result="hardAlpha" values="0 0 0 0 0 0 0 0 0 0 0 0 0 0 0 0 0 0 127 0"/><feOffset/><feGaussianBlur stdDeviation="3.5"/><feComposite in2="hardAlpha" operator="out"/><feColorMatrix values="0 0 0 0 0.94902 0 0 0 0 0.866667 0 0 0 0 0.486275 0 0 0 1 0"/><feBlend in2="BackgroundImageFix" result="effect1_dropShadow_3766_1928"/><feBlend in="SourceGraphic" in2="effect1_dropShadow_3766_1928" result="shape"/></filter></defs></svg>
